X:1
T:5. Ronde
T:Wo bistu
C:Tielman Susato
S:Tileman Susato: Danserye (1551)
R:Ronde
M:4/2
L:1/2
K:F
FF/F/GG|AAFc|ccB2|A2A2|AA/A/B>A|
GFEA|GF2E|F2F2|AA/A/B>A|GFEA|
GF2E|F2F2::AA/A/GF|FEF2|AA/A/GF|FEF2:|
